X: 172
T: the London Assembly
%R: reel
M: C|
L: 1/8
Z: 2014 John Chambers <jc:trillian.mit.edu>
B: Chas & Sam Thompson "Twenty Four Country Dances for the Year 1772", London 1772, p.86
F: http://folkopedia.efdss.org/images/8/89/Thompson_24_1772.PDF
K: Bb
F2 |\
B2(dB) cAFE | DFBd cAF2 |\
B2dB c=egb | agf=e f2 :: F2 |\
AFec B2AB | dBbg f=ef2 |
gbdf egce | dfBd cAF2 |\
GE2G cBAG | AF2A dcBA |\
Bfga bfed | ecBA B2 :|
% - - - - - - - - - - - - - - - - - - - - - - - - -
%%begintext align
%% Turn Right hands & cast off 1 Cu. .|. turn Left hands
%% & cast off below the 3d Cu. :|. lead up the middle &
%% cast off 1 Cu. & thro' the bottom & cast up into the 2d
%% Cu.s place .|: hands four round at bottom and
%% Right & Left at top :|:
%%endtext
% - - - - - - - - - - - - - - - - - - - - - - - - -

%%sep 1 1 500
%%sep 1 1 500
